X:6791
T:Happy to Meet, Sorry to Part
R:Reel
S:(Fisher Street)
C:Mick O'Connor
H:
N:
D:Fisher Street
Z:Adrian Scahill
M:4/4
L:1/8
K:D
A,B,DE F2ED|B,EEF EDB,G,|A,B,DE FABc|dBAF EDB,G,|\
A,B,DE F2ED|B,EEF EDB,D|A,B,DE FABc|dBAF EDD2:||\
d2(3fed a2fd|edBd edBA|defa defa|(3efe de fddA|\
d2(3fed a2fd|edBd edBd|faab afdf|1 gefd Beec:|2 (3efe de fdd2||


